static/images/skills/csharp.svg

<svg xmlns="http://www.w3.org/2000/svg" xml:space="preserve" style="fill-rule:evenodd;clip-rule:evenodd;stroke-linejoin:round;stroke-miterlimit:2" viewBox="0 0 1200 900"><path d="M0 0h1200v900H0z" style="fill:#c58dc4"/><path d="M115.4 30.7 67.1 2.9c-.8-.5-1.9-.7-3.1-.7s-2.3.3-3.1.7l-48 27.9c-1.7 1-2.9 3.5-2.9 5.4v55.7c0 1.1.2 2.4 1 3.5l106.8-62c-.6-1.2-1.5-2.1-2.4-2.7" style="fill:#9b4f96;fill-rule:nonzero" transform="translate(289.563 139.32)scale(4.85434)"/><path d="M10.7 95.3c.5.8 1.2 1.5 1.9 1.9l48.2 27.9c.8.5 1.9.7 3.1.7s2.3-.3 3.1-.7l48-27.9c1.7-1 2.9-3.5 2.9-5.4V36.1c0-.9-.1-1.9-.6-2.8z" style="fill:#68217a;fill-rule:nonzero" transform="translate(289.563 139.32)scale(4.85434)"/><path d="M85.3 76.1C81.1 83.5 73.1 88.5 64 88.5c-13.5 0-24.5-11-24.5-24.5s11-24.5 24.5-24.5c9.1 0 17.1 5 21.3 12.5l13-7.5c-6.8-11.9-19.6-20-34.3-20-21.8 0-39.5 17.7-39.5 39.5s17.7 39.5 39.5 39.5c14.6 0 27.4-8 34.2-19.8zM97 66.2l.9-4.3h-4.2v-4.7h5.1L100 51h4.9l-1.2 6.1h3.8l1.2-6.1h4.8l-1.2 6.1h2.4v4.7h-3.3l-.9 4.3h4.2v4.7h-5.1l-1.2 6h-4.9l1.2-6h-3.8l-1.2 6h-4.8l1.2-6h-2.4v-4.7H97zm4.8 0h3.8l.9-4.3h-3.8z" style="fill:#fff;fill-rule:nonzero" transform="translate(289.563 139.32)scale(4.85434)"/></svg>

<?xml version="1.0" encoding="UTF-8" standalone="no"?>
<!DOCTYPE svg PUBLIC "-//W3C//DTD SVG 1.1//EN" "http://www.w3.org/Graphics/SVG/1.1/DTD/svg11.dtd">
<svg width="100%" height="100%" viewBox="0 0 1200 900" version="1.1" xmlns="http://www.w3.org/2000/svg" xmlns:xlink="http://www.w3.org/1999/xlink" xml:space="preserve" xmlns:serif="http://www.serif.com/" style="fill-rule:evenodd;clip-rule:evenodd;stroke-linejoin:round;stroke-miterlimit:2;">
    <rect x="0" y="0" width="1200" height="900" style="fill:rgb(197,141,196);"/>
    <g transform="matrix(4.79233,0,0,4.79233,293.291,143.291)">
        <g transform="matrix(1.01294,0,0,1.01294,-0.777832,-0.828479)">
            <path d="M115.4,30.7L67.1,2.9C66.3,2.4 65.2,2.2 64,2.2C62.8,2.2 61.7,2.5 60.9,2.9L12.9,30.8C11.2,31.8 10,34.3 10,36.2L10,91.9C10,93 10.2,94.3 11,95.4L117.8,33.4C117.2,32.2 116.3,31.3 115.4,30.7Z" style="fill:rgb(155,79,150);fill-rule:nonzero;"/>
        </g>
        <g transform="matrix(1.01294,0,0,1.01294,-0.777832,-0.828479)">
            <path d="M10.7,95.3C11.2,96.1 11.9,96.8 12.6,97.2L60.8,125.1C61.6,125.6 62.7,125.8 63.9,125.8C65.1,125.8 66.2,125.5 67,125.1L115,97.2C116.7,96.2 117.9,93.7 117.9,91.8L117.9,36.1C117.9,35.2 117.8,34.2 117.3,33.3L10.7,95.3Z" style="fill:rgb(104,33,122);fill-rule:nonzero;"/>
        </g>
        <g transform="matrix(1.01294,0,0,1.01294,-0.777832,-0.828479)">
            <path d="M85.3,76.1C81.1,83.5 73.1,88.5 64,88.5C50.5,88.5 39.5,77.5 39.5,64C39.5,50.5 50.5,39.5 64,39.5C73.1,39.5 81.1,44.5 85.3,52L98.3,44.5C91.5,32.6 78.7,24.5 64,24.5C42.2,24.5 24.5,42.2 24.5,64C24.5,85.8 42.2,103.5 64,103.5C78.6,103.5 91.4,95.5 98.2,83.7L85.3,76.1ZM97,66.2L97.9,61.9L93.7,61.9L93.7,57.2L98.8,57.2L100,51L104.9,51L103.7,57.1L107.5,57.1L108.7,51L113.5,51L112.3,57.1L114.7,57.1L114.7,61.8L111.4,61.8L110.5,66.1L114.7,66.1L114.7,70.8L109.6,70.8L108.4,76.8L103.5,76.8L104.7,70.8L100.9,70.8L99.7,76.8L94.9,76.8L96.1,70.8L93.7,70.8L93.7,66.1L97,66.1L97,66.2ZM101.8,66.2L105.6,66.2L106.5,61.9L102.7,61.9L101.8,66.2Z" style="fill:white;fill-rule:nonzero;"/>
        </g>
    </g>
</svg>
